pix_core/f/publisher.svg

<svg fill="none" preserveAspectRatio="xMinYMid meet" viewBox="0 0 24 24" xmlns="http://www.w3.org/2000/svg"><g fill="#fff"><g clip-rule="evenodd" fill-rule="evenodd"><path d="m4.5 5c0-1.38071 1.11929-2.5 2.5-2.5h6.1716c.663 0 1.2989.26339 1.7677.73223l3.8285 3.82843c.4688.46884.7322 1.10473.7322 1.76777v10.17157c0 1.3807-1.1193 2.5-2.5 2.5h-10c-1.38071 0-2.5-1.1193-2.5-2.5 0-.2761.22386-.5.5-.5s.5.2239.5.5c0 .8284.67157 1.5 1.5 1.5h10c.8284 0 1.5-.6716 1.5-1.5v-10c0-.27614-.2239-.5-.5-.5h-3c-.8284 0-1.5-.67157-1.5-1.5v-3c0-.27614-.2239-.5-.5-.5h-6c-.82843 0-1.5.67157-1.5 1.5v6c0 .2761-.22386.5-.5.5s-.5-.2239-.5-.5zm10 2v-2.79289l3.2929 3.29289h-2.7929c-.2761 0-.5-.22386-.5-.5z"/><path d="m13.2718 12.6364h-.1222c-.4717-.0065-1.1608-.0124-1.3235 0h-.0369c-.0641 0-.1164.0504-.1194.1137l-.001.0061-.0004.0047.0012 4.2445c0 .0661.0535.1196.1196.1196h.183l-.0002.002h1.0693l-.0005-.002h.374c.3393 0 .6338-.0481.8798-.1489.2493-.1015.4443-.2553.5779-.4635.1334-.21.197-.4635.197-.7534 0-.1889-.0409-.3674-.123-.5339-.0833-.1732-.2165-.3114-.3936-.4152-.0072-.0043-.0144-.0086-.0217-.0127.1328-.0925.2367-.2062.3083-.342l.0128-.0244c.0752-.1411.1223-.3105.1223-.512 0-.8965-.6876-1.2447-1.4974-1.277-.0666-.0037-.1351-.0056-.2054-.0056zm1.2594 2.161c-.0123.0086-.0248.017-.0376.0251.0122-.0083.0244-.0169.0364-.0258zm-1.5412 1.405h-.2057v-.9387h.4905l.0151-.0002.0165-.0003c.1607-.0036.6065-.0135.6455.4115.0011.0112.0027.022.0048.0322.0007.0141.0011.0286.0011.0435 0 .0937-.0196.1718-.0555.2376-.0338.062-.0868.114-.1653.155-.0752.0374-.1804.0599-.3222.0599zm.6552-1.7839-.0205-.0517c.0841-.0351.1386-.0815.1736-.1367.0379-.0589.0602-.1352.0602-.2337 0-.1181-.0227-.2012-.0579-.2581l-.0011-.0018c-.032-.0537-.0841-.0971-.1675-.1264-.0855-.0307-.2044-.0487-.3602-.0487h-.4875v-.0021h-.0045v.0021h.0045v.857l.55.0001c.122-.0047.2181-.0232.2904-.0517l-.0018.0007z"/><path d="m3.39884 12.6364c-.06602 0-.11954.0536-.11954.1196v4.2494c0 .0661.05352.1196.11954.1196h.87557c.06603 0 .11955-.0535.11955-.1196v-1.3952h.65971c.34531 0 .64819-.0564.90485-.1742.25803-.1175.45987-.2868.60008-.509.14033-.2224.20816-.4826.20816-.7759 0-.2899-.06803-.5519-.20683-.7826-.13919-.2312-.33987-.4105-.59748-.5384-.25771-.1308-.56207-.1937-.90878-.1937zm1.65483 2.0518h-.65971v-1.1268h.65971c.1524 0 .26446.0302.34491.0809.08592.054.1465.1237.1851.2102.04139.0927.06258.1937.06258.3044 0 .1086-.02111.2021-.06076.283-.03665.0748-.09455.1349-.17902.1804-.08245.0425-.19767.0679-.35281.0679z"/></g><path d="m7.39273 12.756c0-.066.05353-.1196.11955-.1196h.87557c.06602 0 .11954.0536.11954.1196v2.8077c0 .1793.02855.3148.07786.4135.04953.099.11802.1679.20591.2119.09515.0467.21149.0722.3526.0722.14587 0 .26142-.0258.35147-.0716.08772-.0439.1558-.1127.20344-.2111l.00067-.0014c.04931-.0987.07787-.2342.07787-.4135v-2.8077c0-.066.05352-.1196.11954-.1196h.87265c.066 0 .1195.0536.1195.1196v2.8077c0 .3438-.0737.6422-.2281.889-.1508.2442-.3607.4281-.6265.5504-.26153.1213-.55929.1802-.89054.1802-.33144 0-.63096-.059-.89605-.18-.2658-.1224-.47681-.3063-.62954-.5502-.15233-.2468-.22544-.5457-.22544-.8894z"/></g></svg>

<svg viewBox="0 0 24 24" fill="none" xmlns="http://www.w3.org/2000/svg" preserveAspectRatio="xMinYMid meet">
<path fill-rule="evenodd" clip-rule="evenodd" d="M4.5 5C4.5 3.61929 5.61929 2.5 7 2.5H13.1716C13.8346 2.5 14.4705 2.76339 14.9393 3.23223L18.7678 7.06066C19.2366 7.5295 19.5 8.16539 19.5 8.82843V19C19.5 20.3807 18.3807 21.5 17 21.5H7C5.61929 21.5 4.5 20.3807 4.5 19C4.5 18.7239 4.72386 18.5 5 18.5C5.27614 18.5 5.5 18.7239 5.5 19C5.5 19.8284 6.17157 20.5 7 20.5H17C17.8284 20.5 18.5 19.8284 18.5 19V9C18.5 8.72386 18.2761 8.5 18 8.5H15C14.1716 8.5 13.5 7.82843 13.5 7V4C13.5 3.72386 13.2761 3.5 13 3.5H7C6.17157 3.5 5.5 4.17157 5.5 5V11C5.5 11.2761 5.27614 11.5 5 11.5C4.72386 11.5 4.5 11.2761 4.5 11V5ZM14.5 7V4.20711L17.7929 7.5H15C14.7239 7.5 14.5 7.27614 14.5 7Z" fill="#fff"/>
<path fill-rule="evenodd" clip-rule="evenodd" d="M13.2718 12.6364H13.1496C12.6779 12.6299 11.9888 12.624 11.8261 12.6364H11.7892C11.7251 12.6364 11.6728 12.6868 11.6698 12.7501L11.6688 12.7562L11.6684 12.7609L11.6696 17.0054C11.6696 17.0715 11.7231 17.125 11.7892 17.125H11.9722L11.972 17.127H13.0413L13.0408 17.125H13.4148C13.7541 17.125 14.0486 17.0769 14.2946 16.9761C14.5439 16.8746 14.7389 16.7208 14.8725 16.5126C15.0059 16.3026 15.0695 16.0491 15.0695 15.7592C15.0695 15.5703 15.0286 15.3918 14.9465 15.2253C14.8632 15.0521 14.73 14.9139 14.5529 14.8101C14.5457 14.8058 14.5385 14.8015 14.5312 14.7974C14.664 14.7049 14.7679 14.5912 14.8395 14.4554L14.8523 14.431C14.9275 14.2899 14.9746 14.1205 14.9746 13.919C14.9746 13.0225 14.287 12.6743 13.4772 12.642C13.4106 12.6383 13.3421 12.6364 13.2718 12.6364ZM14.5312 14.7974C14.5189 14.806 14.5064 14.8144 14.4936 14.8225C14.5058 14.8142 14.518 14.8056 14.53 14.7967L14.5312 14.7974ZM12.99 16.2024H12.7843V15.2637H13.2748L13.2899 15.2635L13.3064 15.2632C13.4671 15.2596 13.9129 15.2497 13.9519 15.6747C13.953 15.6859 13.9546 15.6967 13.9567 15.7069C13.9574 15.721 13.9578 15.7355 13.9578 15.7504C13.9578 15.8441 13.9382 15.9222 13.9023 15.988C13.8685 16.05 13.8155 16.102 13.737 16.143C13.6618 16.1804 13.5566 16.2029 13.4148 16.2029L12.99 16.2024ZM13.6452 14.4185L13.6247 14.3668C13.7088 14.3317 13.7633 14.2853 13.7983 14.2301C13.8362 14.1712 13.8585 14.0949 13.8585 13.9964C13.8585 13.8783 13.8358 13.7952 13.8006 13.7383L13.7995 13.7365C13.7675 13.6828 13.7154 13.6394 13.632 13.6101C13.5465 13.5794 13.4276 13.5614 13.2718 13.5614H12.7843V13.5593H12.7798V13.5614H12.7843V14.4184L13.3343 14.4185C13.4563 14.4138 13.5524 14.3953 13.6247 14.3668L13.6229 14.3675L13.6452 14.4185Z" fill="#fff"/>
<path fill-rule="evenodd" clip-rule="evenodd" d="M3.39884 12.6364C3.33282 12.6364 3.2793 12.69 3.2793 12.756V17.0054C3.2793 17.0715 3.33282 17.125 3.39884 17.125H4.27441C4.34044 17.125 4.39396 17.0715 4.39396 17.0054V15.6102H5.05367C5.39898 15.6102 5.70186 15.5538 5.95852 15.436C6.21655 15.3185 6.41839 15.1492 6.5586 14.927C6.69893 14.7046 6.76676 14.4444 6.76676 14.1511C6.76676 13.8612 6.69873 13.5992 6.55993 13.3685C6.42074 13.1373 6.22006 12.958 5.96245 12.8301C5.70474 12.6993 5.40038 12.6364 5.05367 12.6364H3.39884ZM5.05367 14.6882H4.39396V13.5614H5.05367C5.20607 13.5614 5.31813 13.5916 5.39858 13.6423C5.4845 13.6963 5.54508 13.766 5.58368 13.8525C5.62507 13.9452 5.64626 14.0462 5.64626 14.1569C5.64626 14.2655 5.62515 14.359 5.5855 14.4399C5.54885 14.5147 5.49095 14.5748 5.40648 14.6203C5.32403 14.6628 5.20881 14.6882 5.05367 14.6882Z" fill="#fff"/>
<path fill="#fff" d="M7.39273 12.756C7.39273 12.69 7.44626 12.6364 7.51228 12.6364H8.38785C8.45387 12.6364 8.50739 12.69 8.50739 12.756V15.5637C8.50739 15.743 8.53594 15.8785 8.58525 15.9772C8.63478 16.0762 8.70327 16.1451 8.79116 16.1891C8.88631 16.2358 9.00265 16.2613 9.14376 16.2613C9.28963 16.2613 9.40518 16.2355 9.49523 16.1897C9.58295 16.1458 9.65103 16.077 9.69867 15.9786L9.69934 15.9772C9.74865 15.8785 9.77721 15.743 9.77721 15.5637V12.756C9.77721 12.69 9.83073 12.6364 9.89675 12.6364H10.7694C10.8354 12.6364 10.8889 12.69 10.8889 12.756V15.5637C10.8889 15.9075 10.8152 16.2059 10.6608 16.4527C10.51 16.6969 10.3001 16.8808 10.0343 17.0031C9.77277 17.1244 9.47501 17.1833 9.14376 17.1833C8.81232 17.1833 8.5128 17.1243 8.24771 17.0033C7.98191 16.8809 7.7709 16.697 7.61817 16.4531C7.46584 16.2063 7.39273 15.9074 7.39273 15.5637V12.756Z" fill="#fff"/>
</svg>
